X: 36791
T: Sherlock's
R: hornpipe
M: 4/4
K: Gmajor
|:(3DEF|G>A (3GFE D>GB>d|g>fg>A (3Bcd g>f|e>dc>B (3ABA G>A|B>AG>F (3EFE (3DEF|
G2 G>E D>GB>D|G>FG>A B>dg>f|e>dc>B A2 (3FGA|B>GG>F G2:|
|:B>c|d>^cd>e d>BG>F|G>Bd>^c d>g (3ggg|e2 (3gfe d>BG>B|c>A (3BAG A2 E>F|
G>A (3GFE D2 B>A|G2 (3FGA (3Bcd g>f|(3efe (3dcB A2 (3FGA|B>G (3GGF G2:|

